X: 1
T: Rambles Of Mike, The
M: 6/8
L: 1/8
R: jig
K: Dmaj
ABA GEA|DED DFA|def ~e2d|1cAG EFG:|2cAB cde||
fga dcd|fga ged|cdc ABA|GEF GAG|
Ade ~f3|gfg afg|efd cde|1Gdd cde:|2Gdd cAG||
